packages/dnb-ui-lib/assets/icons/paragraph_medium.svg

<svg width="24" height="24" viewBox="0 0 24 24" fill="none" xmlns="http://www.w3.org/2000/svg">
<path d="M16.5 5.05759C16.1019 3.59531 14.469 2.5 12.5151 2.5C10.263 2.5 8.4374 3.95507 8.4374 5.75C8.4374 7.40735 9.99389 8.77494 12.0054 8.97486L12.325 9.01652M7.5 18.9018C7.87866 20.3843 9.52369 21.5 11.4957 21.5C13.7477 21.5 15.5733 20.0449 15.5733 18.25C15.5733 16.5927 14.0168 15.2251 12.0054 15.0251L11.6857 14.9837M11.6857 14.9837C13.9254 15.2146 15.8841 14.066 16.0607 12.4182C16.2372 10.7704 14.5647 9.24744 12.325 9.01652M11.6857 14.9837C9.44599 14.7527 7.77348 13.2298 7.95003 11.582C8.12658 9.9342 10.0853 8.78561 12.325 9.01652" stroke="black" stroke-width="1.5"/>
</svg>

<svg width="24" height="24" viewBox="0 0 24 24" fill="none" xmlns="http://www.w3.org/2000/svg"><path d="M16.5 5.058C16.102 3.595 14.469 2.5 12.515 2.5c-2.252 0-4.078 1.455-4.078 3.25 0 1.657 1.557 3.025 3.568 3.225l.32.042M7.5 18.902c.379 1.482 2.024 2.598 3.996 2.598 2.252 0 4.077-1.455 4.077-3.25 0-1.657-1.556-3.025-3.568-3.225l-.32-.041m0 0c2.24.23 4.2-.918 4.376-2.566.176-1.648-1.496-3.17-3.736-3.401m-.64 5.967c-2.239-.231-3.912-1.754-3.735-3.402.177-1.648 2.135-2.796 4.375-2.565" stroke="#000" stroke-width="1.5"/></svg>
